X: 1610
T: Reh-i Aşkında Edip...
C: Dede Efendi
O: Turkey
F: http://compmusic.upf.edu/node/140
N: huzzam--yuruksemai--yuruksemai--reh-i_askinda--dede_efendi
N: makam= huzzam
N: form= yuruksemai
N: usul= yuruksemai = 6/8
M: 6/8
L: 1/16
K: C _1/4B _3/4e ^3/4f 
Q: 1/4=90
%%MIDI tuningsystem comma53
d8 f2e2e2d2 d4c2B2  | e2d2e2d2 d2c2c2B2 B8  | \
w:  Ah  reh_ *  i  *  aş  |  kın *  *  *  da  *  e *  dip   | 
z4B4 c4d4 d8  | 
w:  kad di mi  kû  | 
e3dc2d2 c2B2e2d2 e6d2  | d4a2g2 g2f2f2e2 e2d2e2d2  | 
w:  tâh  *  *  *  *  *  gö *  nül    |  a man  *  *  *  e *  fen  | 
d8 d3cB2c2 d8  | f8 f4f4 f4e2d2  | a2g2g2f2 f2e2d2e2 f8  | 
w:  dim   SAZ  |  Ah  be ni  baş  |  tan  *  *  *  çı *  ka *  rıp   | 
z4f4 f4f4 f4e2d2  | a2g2g2f2 f2e2e2d2 e6z2  | \
w:  ey le di  güm  |  râh  *  *  *  *  *  gö *  nül    | 
d4e8e2d2 e3dc4  | 
w:  a man  e *  fen  | 
d2e2f2g2 a2g2f2e2 d4d2c2  | d8 d4d4 d2d2c2B2  | \
w:  dim    |  Ah  be ni  baş  | 
e2d2e2d2 d2c2c2B2 d3cB2d2  | 
w:  tan  *  *  *  çı *  ka *  rıp   | 
c4B4 c4d4 d4c2B2  | e6d2 d2c2c2B2 B4z4  | \
w:  *  ey le di  güm  |  râh  *  *  *  gö *  nül    | 
B4a2g2 =f2=e2e2d2 d2c2c2B2  | 
w:  a man  *  *  *  e *  fen  | 
B8 d3cB2c2 d8  | B4d4 d2c2B4 e4e2d2  | \
w:  dim   SAZ  |  Ten  nen  ni  *  ten  nen  ni   | 
c4f2e2 e2d2c2d2 e4z4  | 
w:  ten  nen  *  ni  *  te  ne  nen   | 
d2e2f2g2 f2e2e2d2 d2c2c2B2  | f6ed d4d4 d4z4  | \
w:  nâ *  *  *  te  *  ne  *  dir   |  ney    | 
f4f4 f4a2g2 g4g4  | 
w:  Ten  nen  ni  ten  *  nen  ni   | 
g2f2f2e2 e2d2c2d2 e4z4  | d2e2f2g2 f2e2e2d2 d2c2c2B2  | 
w:  ten  *  nen  *  ni  *  te  ne  nen   |  nâ *  *  *  te  *  ne  *  dir   | 
d3cB2d2 c2d2c2d2 d2c4B2  | B8 f2e2e2d2 d2c2c2B2  | \
w:  ney    |  ah be *  li  *  yâ  | 
B16-B4z4  | 
w:  rim   | 
c4d8d4 d2{e}d2c2B2  | d4e8e2d2 e3dc4  | \
w:  Yâr   |  yâr   | 
d2e2f2e2 e2d2d2c2 d2c2c2B2  | 
w:  dil *  *  *  de  *  ni *  hâ  | 
B8 d3cB2c2 d8  | c4d8d4 d2{e}d2c2B2  | \
w:  nım   SAZ  |  Dost   | 
d4e8e2d2 e3dc4  | d2e2f2e2 e2d2d2c2 d2c2c2B2  | 
w:  dost   |  kâ *  *  *  şı  *  ke *  mâ  | 
B8 d3cB2c2 d4z4  | d6z2 B4c4 d8  | d8 f2e2e2d2 d4^c4  | \
w:  nım   SAZ  |  Ah  ki me  dâd   |  ey le *  ye *  yim   | 
a2g2g2f2 f2e2e2d2 d4f4  | 
w:  câ *  *  *  nâ *  *  *  nım    | 
f8 f4f4 f4e2d2  | a3gg4 g4g4 g2f2g2f2  | \
w:  Ah  ki me  fer  |  yâd  *  *  e de yim   | 
f2e2e2d2 d2c2a3g g6z2  | 
w:  sul *  *  *  tâ *  *  *  nım    | 
=f4g8g8g2f2  | a3g=f2g2 f2g2f2g2 g2f4_1/4e2  | \
w:  Yâr   |  yâr   | 
d2_1/4e2=f2f2 e2d2d2e2 f2f2e2d2  | 
w:  dâd  *  ey  *  *  *  dâd  *  ey   | 
d4a2g2 =f2=e2e2d2 d2c2c2B2  | B8 g3f=e2f2 g6z2  | \
w:  se nin  *  *  *  e *  lin  |  den  SAZ  | 
=f4g8g8g2f2  | 
w:  dost   | 
a3g=f2g2 f2g2f2g2 g2f4_1/4e2  | d2_1/4e2=f2f2 e2d2d2e2 f2f2e2d2  | 
w:  dost   |  dâd  *  ey  *  *  *  dâd  *  ey   | 
d4a2g2 =f2=e2e2d2 d2c2c2B2  | B8 g3f=e2f2 g6z2  | \
w:  se nin  *  *  *  di *  lin  |  den  SAZ  | 
g6f2 =e4f4 g6z2  | 
w:  Ah  *  ba şı mı   | 
g8 a2_b2a2g2 g2f=ef2g2  | f4=e4 f4g4 g8  | \
w:  der de  *  sa *  lıp   |  *  sî ne mi  sû  | 
a2_b2a2b2 a2g2g2a2 g3f=e4  | 
w:  zân  *  *  *  et *  *  *  ti    | 
f4g8a2b2 c'4b2a2  | a3gf2g2 f2g2a2ag g6z2  | \
w:  a man  e *  fen  |  dim    | 
g6f2 =e4f4 g8  | 
w:  Ah  *  yak tı  yan  | 
g6=f2 a4a2g2 a3g^3/4f2g2  | =f4f4 f4f4 g3f_1/4e4  | \
w:  dır *  dı  be *  ni   |  *  derd_ i le  ey  | 
g6f2 f2e2e2d2 e6z2  | 
w:  vah  *  *  *  gö *  nül    | 
d4e8e2d2 e3dc4  | d2e2f2g2 a2g2f2e2 d6c2  | \
w:  a man  e *  fen  |  dim    | 
d8 d4d4 d2d2c2B2  | 
w:  Ah  yak tı  yan  | 
e2d2e2d2 d2c2c2B2 d3cB2d2  | c4B4 c4d4 d4c2B2  | \
w:  dır *  *  *  dı  *  be *  ni   |  *  derd_ i le  ey  | 
e6d2 d2c2c2B2 B4z4  | 
w:  vah  *  *  *  gö *  nül    | 
B4a2g2 =f2=e2e2d2 d2c2c2B2  | B8 d3cB2c2 d8  | \
w:  a man  *  *  *  e *  fen  |  dim   SAZ  | 
B4d4 d2c2B4 e4e2d2  | 
w:  Ten  nen  ni  *  ten  nen  ni   | 
c4f2e2 e2d2c2d2 e4z4  | d2e2f2g2 f2e2e2d2 d2c2c2B2  | 
w:  ten  nen  *  ni  *  te  ne  nen   |  nâ *  *  *  te  *  ne  *  dir   | 
f6ed d4d4 d4z4  | f4f4 f4a2g2 g4g4  | \
w:  ney    |  Ten  nen  ni  ten  *  nen  ni   | 
g2f2f2e2 e2d2c2d2 e4z4  | 
w:  ten  *  nen  *  ni  *  te  ne  nen   | 
d2e2f2g2 f2e2e2d2 d2c2c2B2  | d3cB2d2 c2d2c2d2 d2c4B2  | 
w:  nâ *  *  *  te  *  ne  *  dir   |  ney    | 
B8 f2e2e2d2 d2c2c2B2  | B16-B4z4  | c4d8d4 d2{e}d2c2B2  | \
w:  ah be *  li  *  yâ  |  rim   |  Yâr   | 
d4e8e2d2 e3dc4  | 
w:  yâr   | 
d2e2f2e2 e2d2d2c2 d2c2c2B2  | B8 d3cB2c2 d8  | \
w:  dil *  *  *  de  *  ni *  hâ  |  nım   SAZ  | 
c4d8d4 d2{e}d2c2B2  | 
w:  Dost   | 
d4e8e2d2 e3dc4  | d2e2f2e2 e2d2d2c2 d2c2c2B2  | \
w:  dost   |  kâ *  *  *  şı  *  ke *  mâ  | 
B8 d3cB2c2 d4z4  | 
w:  nım   SAZ  | 
d6z2 B4c4 d8  | d8 f2e2e2d2 d4^c4  | \
w:  Ah  ki me  dâd   |  ey le *  ye *  yim   | 
a2g2g2f2 f2e2e2d2 d4f4  | 
w:  câ *  *  *  nâ *  *  *  nım    | 
f8 f4f4 f4e2d2  | a3gg4 g4g4 g2f2g2f2  | \
w:  Ah  ki me  fer  |  yâd  *  *  e de yim   | 
f2e2e2d2 d2c2a3g g6z2  | 
w:  sul *  *  *  tâ *  *  *  nım    | 
=f4g8g8g2f2  | a3g=f2g2 f2g2f2g2 g2f4_1/4e2  | \
w:  Yâr   |  yâr   | 
d2_1/4e2=f2f2 e2d2d2e2 f2f2e2d2  | 
w:  dâd  *  ey  *  *  *  dâd  *  ey   | 
d4a2g2 =f2=e2e2d2 d2c2c2B2  | B8 g3f=e2f2 g6z2  | \
w:  se nin  *  *  *  e *  lin  |  den  SAZ  | 
=f4g8g8g2f2  | 
w:  dost   | 
a3g=f2g2 f2g2f2g2 g2f4_1/4e2  | d2_1/4e2=f2f2 e2d2d2e2 f2f2e2d2  | 
w:  dost   |  dâd  *  ey  *  *  *  dâd  *  ey   | 
d4a2g2 =f2=e2e2d2 d2c2c2B2  | B16 z8  | |


